X:15
T:Heureux l'amant. [FJ15]
S:Festin joyeux.  Music page 8.
Z:transcribed by Eric Conrad, 2021.
N:NB 3/4 time marked as "3".
N:NB Repeat marks were added at beginning and end.
N:NB The MS repeat mark is 4 vertical dots enclosed by bars on both sides.
N:NB The plus signs seem to indicate some kind of roll or trill.
M:3/4
L:1/4
K:G
|: GFG | A>BG | cBc | "^+"A2A | GFG | A>BG |
c"^+"A>G | G3 :: GAB | c>BA | B c/B/A/G/ | "^+"F>ED |
GFG | A>BG | cBc | "^+"A2A | GFG | A>BG | cA>G | G3 :|
